communes/1365.svg

<?xml version="1.0" encoding="UTF-8" standalone="no"?>
<svg
   xmlns:dc="http://purl.org/dc/elements/1.1/"
   xmlns:cc="http://creativecommons.org/ns#"
   xmlns:rdf="http://www.w3.org/1999/02/22-rdf-syntax-ns#"
   xmlns:svg="http://www.w3.org/2000/svg"
   xmlns="http://www.w3.org/2000/svg"
   xmlns:sodipodi="http://sodipodi.sourceforge.net/DTD/sodipodi-0.dtd"
   xmlns:inkscape="http://www.inkscape.org/namespaces/inkscape"
   version="1.0"
   width="208.86046"
   height="244.65999"
   id="svg2780"
   inkscape:version="0.92.4 (5da689c313, 2019-01-14)"
   sodipodi:docname="1365.svg">
  <metadata
     id="metadata27">
    <rdf:RDF>
      <cc:Work
         rdf:about="">
        <dc:format>image/svg+xml</dc:format>
        <dc:type
           rdf:resource="http://purl.org/dc/dcmitype/StillImage" />
        <dc:title />
      </cc:Work>
    </rdf:RDF>
  </metadata>
  <sodipodi:namedview
     pagecolor="#ffffff"
     bordercolor="#666666"
     borderopacity="1"
     objecttolerance="10"
     gridtolerance="10"
     guidetolerance="10"
     inkscape:pageopacity="0"
     inkscape:pageshadow="2"
     inkscape:window-width="3259"
     inkscape:window-height="1417"
     id="namedview25"
     showgrid="false"
     inkscape:zoom="1.4142136"
     inkscape:cx="-371.59711"
     inkscape:cy="270.81104"
     inkscape:window-x="-8"
     inkscape:window-y="-8"
     inkscape:window-maximized="1"
     inkscape:current-layer="svg2780"
     inkscape:measure-start="104.255,149.787"
     inkscape:measure-end="104.255,126.383"
     showguides="true"
     inkscape:object-paths="true"
     inkscape:snap-intersection-paths="true"
     inkscape:document-rotation="0" />
  <defs
     id="defs2782" />
  <path
     inkscape:connector-curvature="0"
     style="fill:#cc2918;fill-opacity:1;fill-rule:evenodd;stroke:#000000;stroke-width:1.99999988;stroke-linecap:butt;stroke-miterlimit:4;stroke-dashoffset:0;stroke-opacity:1"
     id="path4212"
     d="m 1,1 3.761095,158.00304 c 2.686489,112.85918 196.651755,112.85918 199.338255,0 L 207.86045,1 Z" />
  <path
     style="opacity:1;fill:#1b63c6;fill-opacity:1;stroke:#000000;stroke-width:1;stroke-miterlimit:9;stroke-dasharray:none;stroke-dashoffset:4.57999992;stroke-opacity:1"
     d="m 8.0074337,181.05005 192.8455763,1e-5 c -11.64863,37.88537 -45.34157,61.88657 -96.42277,62.59736 C 52.146772,241.19444 20.86138,219.54658 8.0074337,181.05005 Z"
     id="path4748"
     inkscape:connector-curvature="0"
     sodipodi:nodetypes="cccc" />
  <path
     id="path4750-9"
     style="opacity:1;fill:#ffffff;fill-opacity:1;stroke:#000000;stroke-width:1;stroke-miterlimit:9;stroke-dasharray:none;stroke-dashoffset:4.57999992;stroke-opacity:1"
     d="M 168.20304,74.512419 V 60.900613 H 153.85198 V 74.247254 H 140.4389 V 60.635448 H 126.08784 V 73.982089 H 112.67476 V 60.370283 H 98.323677 V 73.716924 H 84.910599 V 28.638866 H 42.426407 V 181.05005 l 125.776633,1e-5 z"
     inkscape:connector-curvature="0"
     sodipodi:nodetypes="ccccccccccccc" />
  <rect
     style="opacity:1;fill:#000000;fill-opacity:1;stroke:#000000;stroke-width:1;stroke-miterlimit:9;stroke-dasharray:none;stroke-dashoffset:4.57999992;stroke-opacity:1"
     id="rect4783"
     width="3.4375"
     height="18.6875"
     x="106.125"
     y="85.659988" />
  <rect
     style="opacity:1;fill:#000000;fill-opacity:1;stroke:#000000;stroke-width:1;stroke-miterlimit:9;stroke-dasharray:none;stroke-dashoffset:4.57999992;stroke-opacity:1"
     id="rect4783-2"
     width="3.4375"
     height="18.6875"
     x="114.125"
     y="85.659988" />
  <rect
     style="opacity:1;fill:#000000;fill-opacity:1;stroke:#000000;stroke-width:1;stroke-miterlimit:9;stroke-dasharray:none;stroke-dashoffset:4.57999992;stroke-opacity:1"
     id="rect4783-8"
     width="3.4375"
     height="18.6875"
     x="136.125"
     y="85.659988" />
  <rect
     style="opacity:1;fill:#000000;fill-opacity:1;stroke:#000000;stroke-width:1;stroke-miterlimit:9;stroke-dasharray:none;stroke-dashoffset:4.57999992;stroke-opacity:1"
     id="rect4783-8-4"
     width="3.4375"
     height="18.6875"
     x="144.125"
     y="85.659988" />
  <rect
     style="opacity:1;fill:#000000;fill-opacity:1;stroke:#000000;stroke-width:1;stroke-miterlimit:9;stroke-dasharray:none;stroke-dashoffset:4.57999992;stroke-opacity:1"
     id="rect4783-8-41"
     width="3.4375"
     height="18.6875"
     x="152.125"
     y="85.659988" />
  <rect
     style="opacity:1;fill:#000000;fill-opacity:1;stroke:#000000;stroke-width:1;stroke-miterlimit:9;stroke-dasharray:none;stroke-dashoffset:4.57999992;stroke-opacity:1"
     id="rect4783-8-7"
     width="3.4375"
     height="18.6875"
     x="61.949753"
     y="85.659988" />
  <rect
     style="opacity:1;fill:#000000;fill-opacity:1;stroke:#000000;stroke-width:1;stroke-miterlimit:9;stroke-dasharray:none;stroke-dashoffset:4.57999992;stroke-opacity:1"
     id="rect4783-8-7-5"
     width="3.4375"
     height="18.6875"
     x="61.949753"
     y="38.909988" />
  <path
     inkscape:connector-curvature="0"
     style="fill:none;fill-opacity:1;fill-rule:evenodd;stroke:#000000;stroke-width:1.99999988;stroke-linecap:butt;stroke-miterlimit:4;stroke-dashoffset:0;stroke-opacity:1"
     id="path4212-9"
     d="M 1,0.99999834 4.761095,159.00304 c 2.686489,112.85918 196.651755,112.85918 199.338255,0 l 3.7611,-158.00304166 z" />
</svg>

<?xml version="1.0" encoding="UTF-8"?>
<svg version="1.0" viewBox="0 0 208.86 244.66" xmlns="http://www.w3.org/2000/svg" xmlns:cc="http://creativecommons.org/ns#" xmlns:dc="http://purl.org/dc/elements/1.1/" xmlns:rdf="http://www.w3.org/1999/02/22-rdf-syntax-ns#">
<metadata>
<rdf:RDF>
<cc:Work rdf:about="">
<dc:format>image/svg+xml</dc:format>
<dc:type rdf:resource="http://purl.org/dc/dcmitype/StillImage"/>
<dc:title/>
</cc:Work>
</rdf:RDF>
</metadata>
<path d="m1 1 3.7611 158c2.6865 112.86 196.65 112.86 199.34 0l3.7611-158z" fill="#cc2918" fill-rule="evenodd" stroke="#000" stroke-width="2"/>
<path d="m8.0074 181.05 192.85 1e-5c-11.649 37.885-45.342 61.887-96.423 62.597-52.283-2.453-83.569-24.101-96.423-62.597z" fill="#1b63c6" stroke="#000" stroke-dashoffset="4.58" stroke-miterlimit="9"/>
<path d="m168.2 74.512v-13.612h-14.351v13.347h-13.413v-13.612h-14.351v13.347h-13.413v-13.612h-14.351v13.347h-13.413v-45.078h-42.484v152.41l125.78 1e-5z" fill="#fff" stroke="#000" stroke-dashoffset="4.58" stroke-miterlimit="9"/>
<rect x="106.12" y="85.66" width="3.4375" height="18.688" stroke="#000" stroke-dashoffset="4.58" stroke-miterlimit="9"/>
<rect x="114.12" y="85.66" width="3.4375" height="18.688" stroke="#000" stroke-dashoffset="4.58" stroke-miterlimit="9"/>
<rect x="136.12" y="85.66" width="3.4375" height="18.688" stroke="#000" stroke-dashoffset="4.58" stroke-miterlimit="9"/>
<rect x="144.12" y="85.66" width="3.4375" height="18.688" stroke="#000" stroke-dashoffset="4.58" stroke-miterlimit="9"/>
<rect x="152.12" y="85.66" width="3.4375" height="18.688" stroke="#000" stroke-dashoffset="4.58" stroke-miterlimit="9"/>
<rect x="61.95" y="85.66" width="3.4375" height="18.688" stroke="#000" stroke-dashoffset="4.58" stroke-miterlimit="9"/>
<rect x="61.95" y="38.91" width="3.4375" height="18.688" stroke="#000" stroke-dashoffset="4.58" stroke-miterlimit="9"/>
<path d="m1 1 3.7611 158c2.6865 112.86 196.65 112.86 199.34 0l3.7611-158z" fill="none" stroke="#000" stroke-width="2"/>
</svg>
